X:1
T:Come Today
T:Come Today
T:R. L. Blowers
T:R. L. Blowers, 1905
T:Public Domain Courtesy of the Cyber Hymnal™
T:Public Domain Courtesy of the Cyber Hymnal™
C:R. L. Blowers
Z:Public Domain
Z:Courtesy of the Cyber Hymnal™
%%score ( 1 2 ) ( 3 4 )
L:1/8
Q:1/4=95
M:4/4
K:Bb
V:1 treble 
V:2 treble 
V:3 bass 
V:4 bass 
V:1
 [DF][^C=E] | [EG][DF][DB][CA] [Ec][DB][B,D][DF] | [FA]2 [EG]4 EC | (z2 E)C x6 | %4
w: 1.~Do you|hear the Sav- ior’s voice so sweet- ly|call- ing, Come to-|* day,|
w: 2.~If you|trust Him He will take a- way your|sor- row, Day by|* day,|
w: 3.~He a-|lone can give you par- don and sal-|va- tion, Full and|* free,|
 (z2 [DF])[^C=E] x6 | [EG][DF][DB][CA] [Ec][DB][B,D][DF] | [FA]2 [EG]4 GG | (z2 d)c x6 | %8
w: * come|to- day; He will wipe the tear- drops|now so swift- ly|* fall-|
w: * day|by day; And in safe- ty lead you|to that bright to-|* mor-|
w: * full|and free; “Who- so- ev- er” is the|bless- èd in- vi-|* ta-|
 (z2 !fermata![EF]2) x6 | [Ec]3 [D=B] [Ed][Ec][EA][EG] | [DF]2 [DB]4 [EF]2 | %11
w: |ing, All a- way, all a-|way; Come to|
w: |row, All the way, all the|way; His arms|
w: |tion, “Come to Me, come to|Me”; Then wait|
 [Ec]3 [E=B] [Ed][Ec][EA]F | ([^Fd]4 !fermata![=Fe]2) ||"^Refrain" [DF][^C=E] | %14
w: Him now with all your sor-|row, *|No long-|
w: are o- pen to re- ceive|you; *|From sin|
w: no long- er, night is fall-|ing, *|Too late,|
 [EG][DF][DB][CA] [Ec][DB][B,D][DF] | [FA]2 [EG]4 EC | (z2 !fermata![=EG])!fermata![_EA] x6 | %17
w: er turn from Him a- way. * *|||
w: and dark- ness turn a- way; List- en|to His lov- ing|* voice|
w: too late, He soon may say; * *|||
 [DB]6 |] %18
w: |
w: so|
w: |
V:2
 x2 | x8 | x8 | (F6 CD E2) | (F6 D=E F2) | x8 | x8 | (c6 =EF G2) | (f6 AB c2) | x8 | x8 | x7 F | %12
 x6 || x2 | x8 | x8 | (F6 CD E2) | x6 |] %18
V:3
 [B,,B,][B,,B,] | [B,,B,][B,,B,][B,,F,][B,,F,] [B,,F,][B,,F,][B,,F,][B,,B,] | [E,B,]2 [E,B,]4 z2 | %3
w: |||
 z2 [F,A,][F,B,] [F,C]2 z2 x2 | z2 [B,,B,][B,,D] [B,,D]2 [B,,B,][B,,B,] x2 | %5
w: Come to- day,|come to- day; * *|
 [B,,B,][B,,B,][B,,F,][B,,F,] [B,,F,][B,,F,][B,,F,][B,,B,] | [E,B,]2 [E,B,]4 z2 | %7
w: ||
 z2 [C,G,][C,A,] [C,B,]2 z2 x2 | z2 [F,C][F,D] !fermata![F,E]2 [F,A,]2 x2 | %9
w: ||
 [F,A,]3 [F,A,] [F,A,][F,A,][F,C][F,A,] | [B,,B,]2 [B,,F,]4 [F,A,]2 | %11
w: ||
 [F,A,]3 [F,A,] [F,A,][F,A,][F,C][F,A,] | A,6 || [B,,B,][B,,B,] | %14
w: |All||
 [B,,B,][B,,B,][B,,F,][B,,F,] [B,,F,][B,,F,][B,,F,][B,,B,] | [E,B,]2 [E,B,]4 z2 | %16
w: ||
 z2 [F,A,][F,B,] [F,C]2 [C,B,]F, x2 | [B,,F,]6 |] %18
w: a- way, all a- way;||
V:4
 x2 | x8 | x8 | x10 | x10 | x8 | x8 | x10 | x10 | x8 | x8 | x8 | (D,4 C,2) || x2 | x8 | x8 | %16
 x7 F, x2 | x6 |] %18

